packages/icons/assets/Speedometer.svg

<svg xmlns="http://www.w3.org/2000/svg" viewBox="0 0 16 16"><path fill="#414141" d="M8 0a7.99582 7.99582 0 0 0-3.61359 15.13062l.406-.91333a6.98868 6.98868 0 0 1-3.757-5.71875L3 8.5l.00018-.99854L1.02527 7.5a6.96066 6.96066 0 0 1 1.68884-4.07983l1.40607 1.408.7063-.70606L3.42023 2.714a6.962 6.962 0 0 1 4.08044-1.68885l-.00134 1.97461 1 .00024.00134-1.97473a6.96132 6.96132 0 0 1 4.079 1.6886l-1.40773 1.40625.70593.7063 1.4079-1.4065a6.962 6.962 0 0 1 1.68908 4.08154L13.00037 7.5l-.00019.99854L14.9646 8.5a6.98878 6.98878 0 0 1-3.757 5.71729l.406.91333A7.99582 7.99582 0 0 0 8 0zM1.00024 8.00391 1 8l.00031-.00537zM7.99817 1H8l.00183.00012zm1.8305 4.46448.70685.7074-2.8294 2.82739-.70685-.7074z"/></svg>

<svg xmlns="http://www.w3.org/2000/svg" viewBox="0 0 16 16"><path fill="#414141" d="M8 0a8 8 0 0 0-3.61 15.13l.4-.91A6.99 6.99 0 0 1 1.04 8.5H3v-1H1.03A6.96 6.96 0 0 1 2.7 3.42l1.41 1.4.7-.7-1.4-1.4a6.96 6.96 0 0 1 4.08-1.7V3h1V1.03a6.96 6.96 0 0 1 4.08 1.68l-1.4 1.41.7.7 1.4-1.4a6.96 6.96 0 0 1 1.7 4.08H13v1h1.96a6.99 6.99 0 0 1-3.75 5.72l.4.91A8 8 0 0 0 8 0zM1 8zm7-7zm1.83 4.46.7.71L7.72 9 7 8.3z"/></svg>
